icon-svg/nanoleaf-shapes.svg

<svg xmlns="http://www.w3.org/2000/svg" fill="#44739e" viewBox="0 0 24 24"><path d="M10.599 7.546H9.264l.667 1.109Zm-1.592.002-.667 1.11h1.335zm10.477 10.614.668-1.11h-1.335zm-1.591.002h1.335l-.668-1.109ZM3.848 17.031l.668 1.11.667-1.11zm.924 1.112h1.335l-.667-1.11Zm9.843-10.576H13.28l.667 1.11zm.924 1.112-.667-1.109-.668 1.109ZM4.516 14.928l.667-1.11H3.848ZM2 13.818l.668 1.11.667-1.11zm18.665 0 .667 1.11.668-1.11zm-.513 0h-1.335l.667 1.11zm-2.259 1.112h1.335l-.668-1.11Zm1.848 0h1.335l-.668-1.11ZM3.592 13.863l-.668 1.11h1.335zm1.848 0-.668 1.11h1.335zm5.839-.059.667 1.109.668-1.109zm2.166 1.155-.668-1.11-.668 1.11zm-2.978 0h1.335l-.668-1.11zm.812-1.35h1.335l-.668-1.109Zm8.155 1.499-.005.007v-.007h-1.812l-1.845-3.067.9-1.494L18.5 13.59l1.933-3.214h.008v-.014h-.008l-1-1.655 1.867-3.09h-3.885l1 1.668-.937 1.558h-3.573l-.012.021-.013-.021h-.005l-1.932-3.211-1.932 3.211H6.358l-.9-1.5L6.5 5.617H2.613l1.87 3.108-1.022 1.7h-.018l.009.015-.009.014h.018l1.924 3.2 1.87-3.108.9 1.491-1.889 3.134H4.414L6.356 18.4l1.934-3.216h1.677L11.9 18.4l1.922-3.2.02.032.03-.051h1.833l1.9 3.152 1.942-3.228zm-1.421-9.153H20.7l-1.344 2.234ZM18.5 7.8l1.344 2.234h-2.687Zm1.344 2.9L18.5 12.935 17.157 10.7ZM17.1 9.181l-1.344 2.234-1.346-2.234Zm-1.911 2.61H12.5l1.344-2.234zm-1.9-2.61-1.344 2.234L10.6 9.181Zm-1.346-2.894 1.344 2.234H10.6Zm-1.862 3.27 1.343 2.234H8.737Zm-6.87-3.6H5.9L4.555 8.189ZM5.385 13l-1.344-2.237h2.688Zm-1.344-2.884 1.344-2.234 1.344 2.234Zm2.788-.935h2.688l-1.344 2.234Zm-.473 8.562-1.344-2.234H7.7Zm.5-2.9L8.2 12.612l1.344 2.234zm1.882-2.5h2.687l-1.343 2.234zm3.164 5.4-1.344-2.234h2.688zm1.886-2.572h-3.655l-.007-.012 1.823-3.03h.025l1.826 3.028Zm.056-.592L12.5 12.345h2.688zm.534.267 1.344-2.234 1.344 2.234zM17.6 17.68l-1.344-2.234h2.688z"/></svg>

<?xml version="1.0" encoding="UTF-8"?>
<svg width="24px" fill="#44739e" height="24px" viewBox="0 0 24 24" version="1.1" xmlns="http://www.w3.org/2000/svg" xmlns:xlink="http://www.w3.org/1999/xlink">
            <path d="M 10.599,7.546 H 9.264 L 9.931,8.655 Z M 9.007,7.548 8.34,8.658 h 1.335 z m 10.477,10.614 0.668,-1.11 h -1.335 z m -1.591,0.002 h 1.335 L 18.56,17.055 Z m -14.045,-1.133 0.668,1.11 0.667,-1.11 z m 0.924,1.112 H 6.107 L 5.44,17.033 Z M 14.615,7.567 H 13.28 l 0.667,1.11 z M 15.539,8.679 14.872,7.57 14.204,8.679 Z M 4.516,14.928 5.183,13.818 H 3.848 Z M 2,13.818 l 0.668,1.11 0.667,-1.11 z m 18.665,0 0.667,1.11 0.668,-1.11 z m -0.513,0 h -1.335 l 0.667,1.11 z m -2.259,1.112 h 1.335 L 18.56,13.82 Z m 1.848,0 h 1.335 L 20.408,13.82 Z M 3.592,13.863 2.924,14.973 h 1.335 z m 1.848,0 -0.668,1.11 h 1.335 z m 5.839,-0.059 0.667,1.109 0.668,-1.109 z m 2.166,1.155 -0.668,-1.11 -0.668,1.11 z m -2.978,0 h 1.335 l -0.668,-1.11 z m 0.812,-1.35 h 1.335 L 11.946,12.5 Z m 8.155,1.499 -0.005,0.007 v -0.007 h -1.812 l -1.845,-3.067 0.9,-1.494 1.828,3.043 1.933,-3.214 h 0.008 v -0.007 -0.007 h -0.008 l -1,-1.655 1.867,-3.09 h -3.885 l 1,1.668 -0.937,1.558 H 13.905 L 13.893,8.864 13.88,8.843 H 13.875 L 11.943,5.632 10.011,8.843 H 6.358 L 5.458,7.343 6.5,5.617 H 2.613 l 1.87,3.108 -1.022,1.7 H 3.443 l 0.009,0.015 -0.009,0.014 h 0.018 l 1.924,3.2 1.87,-3.108 0.9,1.491 -1.889,3.134 H 4.414 L 6.356,18.4 8.29,15.184 h 1.677 l 1.933,3.216 1.922,-3.2 0.02,0.032 0.03,-0.051 h 1.833 l 1.9,3.152 1.942,-3.228 z M 18.013,5.955 H 20.7 L 19.356,8.189 Z M 18.5,7.8 19.844,10.034 H 17.157 Z M 19.844,10.7 18.5,12.935 17.157,10.7 Z M 17.1,9.181 15.756,11.415 14.41,9.181 Z m -1.911,2.61 H 12.5 l 1.344,-2.234 z m -1.9,-2.61 -1.344,2.234 L 10.6,9.181 Z M 11.943,6.287 13.287,8.521 H 10.6 Z m -1.862,3.27 1.343,2.234 H 8.737 Z m -6.87,-3.6 H 5.9 L 4.555,8.189 Z M 5.385,13 4.041,10.763 H 6.729 Z M 4.041,10.116 5.385,7.882 6.729,10.116 Z M 6.829,9.181 H 9.517 L 8.173,11.415 Z M 6.356,17.743 5.012,15.509 H 7.7 Z m 0.5,-2.9 1.344,-2.231 1.344,2.234 z m 1.882,-2.5 h 2.687 l -1.343,2.234 z m 3.164,5.4 -1.344,-2.234 h 2.688 z m 1.886,-2.572 h -3.655 l -0.007,-0.012 1.823,-3.03 h 0.025 L 13.8,15.157 Z M 13.844,14.579 12.5,12.345 h 2.688 z m 0.534,0.267 1.344,-2.234 1.344,2.234 z M 17.6,17.68 16.256,15.446 h 2.688 z"/>

</svg>
